Themes/OneUI/assets/svg/refresh.svg

<?xml version="1.0" encoding="UTF-8" standalone="no"?>
<svg
   width="15.983654"
   height="16.002932"
   viewBox="0 0 15.983654 16.002932"
   fill="none"
   version="1.1"
   id="svg1770"
   sodipodi:docname="refresh.svg"
   xmlns:inkscape="http://www.inkscape.org/namespaces/inkscape"
   xmlns:sodipodi="http://sodipodi.sourceforge.net/DTD/sodipodi-0.dtd"
   xmlns="http://www.w3.org/2000/svg"
   xmlns:svg="http://www.w3.org/2000/svg">
  <sodipodi:namedview
     id="namedview1772"
     pagecolor="#ffffff"
     bordercolor="#666666"
     borderopacity="1.0"
     inkscape:showpageshadow="2"
     inkscape:pageopacity="0.0"
     inkscape:pagecheckerboard="0"
     inkscape:deskcolor="#d1d1d1" />
  <g
     clip-path="url(#clip0_1_2658)"
     id="g1763"
     transform="translate(-4.0163461,-3.9970681)">
    <path
       d="m 17.65,6.34999 c -1.63,-1.63 -3.94,-2.57 -6.48,-2.31 -3.66999,0.37 -6.68999,3.35 -7.09999,7.02001 -0.55,4.85 3.2,8.94 7.92999,8.94 3.19,0 5.93,-1.87 7.21,-4.57 C 19.52,14.77 19.05,14 18.32,14 h -0.01 c -0.37,0 -0.72,0.2 -0.88,0.53 -1.13,2.43 -3.84,3.97 -6.81,3.32 C 8.40001,17.36 6.61001,15.55 6.13001,13.33 5.31001,9.43999 8.26001,5.99999 12,5.99999 c 1.66,0 3.14,0.69 4.22,1.78 L 13.85,10.15 C 13.54,10.46 13.76,11 14.21,11 H 19 c 0.55,0 1,-0.45 1,-1.00001 v -4.79 c 0,-0.45 -0.54,-0.67 -0.85,-0.35 z"
       fill="#000000"
       id="path1761" />
  </g>
  <defs
     id="defs1768">
    <clipPath
       id="clip0_1_2658">
      <rect
         width="24"
         height="24"
         fill="#ffffff"
         id="rect1765"
         x="0"
         y="0" />
    </clipPath>
  </defs>
</svg>

<svg width="24" height="24" viewBox="0 0 24 24" fill="none" xmlns="http://www.w3.org/2000/svg">
<g clip-path="url(#clip0_1_2658)">
<path d="M17.65 6.34999C16.02 4.71999 13.71 3.77999 11.17 4.03999C7.50001 4.40999 4.48001 7.38999 4.07001 11.06C3.52001 15.91 7.27001 20 12 20C15.19 20 17.93 18.13 19.21 15.43C19.52 14.77 19.05 14 18.32 14H18.31C17.94 14 17.59 14.2 17.43 14.53C16.3 16.96 13.59 18.5 10.62 17.85C8.40001 17.36 6.61001 15.55 6.13001 13.33C5.31001 9.43999 8.26001 5.99999 12 5.99999C13.66 5.99999 15.14 6.68999 16.22 7.77999L13.85 10.15C13.54 10.46 13.76 11 14.21 11H19C19.55 11 20 10.55 20 9.99999V5.20999C20 4.75999 19.46 4.53999 19.15 4.85999L17.65 6.34999Z" fill="black"/>
</g>
<defs>
<clipPath id="clip0_1_2658">
<rect width="24" height="24" fill="white"/>
</clipPath>
</defs>
</svg>
